X:374
T:Reel 374
M:4/4
K:Dmaj
L:1/8
D>F (3FEF AF (3FED |E>A, (3CDE B>E (3EDE |d>F (3FEF A>F (3DEF |GFED CEA,C|D2F>D A>F (3FEF |G>E (3EEE B2AG|F>D (3DDD D>D (3DCD |E>A, (3A,B,C D2AG|F>A (3AAA f2ed| (3Bcd AF GEEE|F>A (3AcA d2cd| (3Bcd AF E2DE|F>A (3AAA d2cd|e>c (3cde dcAc| (3dcd  (3cdc dfed|cABc dfed|
